public/avatar/hat/102.svg

<svg xmlns:xlink="http://www.w3.org/1999/xlink" height="92.9" width="100.7" xmlns="http://www.w3.org/2000/svg"><use height="39.5" transform="translate(22.45 45.15)" width="32.2" xlink:href="#a"/><defs><g id="a" fill-rule="evenodd"><path d="M6.4.7 4.15 2.75q-2 .75-3.5.75T-5.9 1.2q-1 0 .5-1.2 5-1.8 6.05-1.55.75 0 5.75 2.25" transform="translate(16.2 4.6)"/><path d="M-15.9 13.3q.5-16.05 10.8-17.85 3.75-.5 6.5 3.05L-3.35 1q-4.8 6.25-5.3 11.8-.45 5.5-.45 14.3l-1.8-.5-1.5-5.05q-1-4.5-3-3.5-.55-2-.5-4.75" transform="translate(16.2 4.6)"/><path d="M11.2 7.75q-.55-5.5-8.05-6.8L-.4-1.55q1.8-3.5 5.55-2.75 4.05.75 7.3 5.25Q15.5 5 15.5 8.25l-.3 9.8q-.75 2.25-3 3.5l-1.55 7.05q1.05-15.3.55-20.85" transform="translate(16.2 4.6)"/><path d="M2.9 4.5q-1 0-2-1l1.5-.55L6.15 4l-3.25.5m-4-1.55 1.75.25q-.75 1.3-2 1.3-1.3.25-2 0l2.25-1.55" transform="translate(16.2 4.6)"/><path d="m1.9 4.5-.05-.15.1.15H1.9M1.15-.25.4-2.55 2.65 0 .15 1l1.2 2.85-.5-.2-.65.1-1.55-3.3 2.5-.7" fill="#fff" transform="translate(16.2 4.6)"/><path d="m-12.4 17.3 3.75 6.3-1 7.25-2.75-13.55m.75-14.35-1 10.35-3.55 8.75.25-8.55q1.55-8.5 4.3-10.55m23.1 0Q14.2 5 15.75 13.5l.25 8.55-3.55-8.75-1-10.35" transform="translate(16.2 4.6)"/><path d="M-1.6 2.75q-3.55 1-4.75 7-1.3 5.8-.8 24.35-3.75-17.3-3.5-22.1 1-9.5 5.5-11.3Q-1.6-.5-1.6 2.75" fill="#edf1f2" transform="translate(16.2 4.6)"/><path d="M-7.15 32.35q-2.25-21.55 0-26.1 2-4.5 5.55-3.5-4.5 2-4.5 7l-1.05 22.6" fill="#9fa2a3" transform="translate(16.2 4.6)"/><path d="M-14.2 19.05h2.75l-.95 7.05-1.8-7.05" transform="translate(16.2 4.6)"/><path d="M-13.4 20.3q-2-1.5-1.5-3.8.7-2.25 1.75-2.5l2.75 4.3-1.25 3.05-1.75-1.05m28.35-1-2.75 7.55.25-7.8 2.5.25" transform="translate(16.2 4.6)"/><path d="M2.15.95 7.9 2q4.05 2.5 5.05 11.75.25 4.8-2 21.15.5-18.65-.75-24.35Q8.7 3.5 1.4 2q0-.8.75-1.05" fill="#edf1f2" transform="translate(16.2 4.6)"/><path d="M1.4 2q6.5-.25 8.55 4 2 4.55 1.25 17.85Q10.65 12 9.45 8 7.9 4 1.4 2" fill="#9fa2a3" transform="translate(16.2 4.6)"/><path d="M8.7 5q1.95 1.25 3 .75.75-.3 1.5-1.75 2 2.75-.75 3.25-2.75.75-3.5-2L8.7 5M-7.65 4q.75.25 1.3 1 .45.75 1.45.25Q-6.1 7-7.15 6.75q-.5 0-1-.75l-1-.75q-.25-.25-1.25 0-.5 0-.75-.75-.25-.7.75-1.9.05 1.15 1 1.4h1.75" fill="#fff" transform="translate(16.2 4.6)"/><path d="M-6.6 3.75-7.65 9.5q-.75 3.8-.5 12.55Q-9.4 10.8-8.9 8.75q.5-2 2.3-5M12.7 6.5v.25L11.7 4q.75.75 2 4.5l-1-2m-1 4.95L10.2 7.5Q8.7 4 7.45 2.75 8.7 2.5 10.95 6l.75 5.45" fill="#fff" transform="translate(16.2 4.6)"/></g></defs></svg>

<?xml version="1.0" encoding="UTF-8" standalone="no"?>
<svg xmlns:xlink="http://www.w3.org/1999/xlink" height="92.9px" width="100.7px" xmlns="http://www.w3.org/2000/svg">
  <g transform="matrix(1.0, 0.0, 0.0, 1.0, 38.65, 49.75)">
    <use height="39.5" transform="matrix(1.0, 0.0, 0.0, 1.0, -16.2, -4.6)" width="32.2" xlink:href="#shape0"/>
  </g>
  <defs>
    <g id="shape0" transform="matrix(1.0, 0.0, 0.0, 1.0, 16.2, 4.6)">
      <path d="M6.4 0.7 L4.15 2.75 Q2.15 3.5 0.65 3.5 -0.85 3.5 -5.9 1.2 -6.9 1.2 -5.4 0.0 -0.4 -1.8 0.65 -1.55 1.4 -1.55 6.4 0.7" fill="#000000" fill-rule="evenodd" stroke="none"/>
      <path d="M-15.9 13.3 Q-15.4 -2.75 -5.1 -4.55 -1.35 -5.05 1.4 -1.5 L-3.35 1.0 Q-8.15 7.25 -8.65 12.8 -9.1 18.3 -9.1 27.1 L-10.9 26.6 -12.4 21.55 Q-13.4 17.05 -15.4 18.05 -15.95 16.05 -15.9 13.3" fill="#000000" fill-rule="evenodd" stroke="none"/>
      <path d="M11.2 7.75 Q10.65 2.25 3.15 0.95 L-0.4 -1.55 Q1.4 -5.05 5.15 -4.3 9.2 -3.55 12.45 0.95 15.5 5.0 15.5 8.25 L15.2 18.05 Q14.45 20.3 12.2 21.55 L10.65 28.6 Q11.7 13.3 11.2 7.75" fill="#000000" fill-rule="evenodd" stroke="none"/>
      <path d="M2.9 4.5 Q1.9 4.5 0.9 3.5 L2.4 2.95 6.15 4.0 2.9 4.5" fill="#000000" fill-rule="evenodd" stroke="none"/>
      <path d="M-1.1 2.95 L0.65 3.2 Q-0.1 4.5 -1.35 4.5 -2.65 4.75 -3.35 4.5 L-1.1 2.95" fill="#000000" fill-rule="evenodd" stroke="none"/>
      <path d="M1.9 4.5 L1.85 4.35 1.95 4.5 1.9 4.5 M1.15 -0.25 L0.4 -2.55 2.65 0.0 0.15 1.0 1.35 3.85 0.85 3.65 0.2 3.75 -1.35 0.45 1.15 -0.25" fill="#ffffff" fill-rule="evenodd" stroke="none"/>
      <path d="M-12.4 17.3 L-8.65 23.6 -9.65 30.85 -12.4 17.3" fill="#000000" fill-rule="evenodd" stroke="none"/>
      <path d="M-11.65 2.95 L-12.65 13.3 -16.2 22.05 -15.95 13.5 Q-14.4 5.0 -11.65 2.95" fill="#000000" fill-rule="evenodd" stroke="none"/>
      <path d="M11.45 2.95 Q14.2 5.0 15.75 13.5 L16.0 22.05 12.45 13.3 11.45 2.95" fill="#000000" fill-rule="evenodd" stroke="none"/>
      <path d="M-1.6 2.75 Q-5.15 3.75 -6.35 9.75 -7.65 15.55 -7.15 34.1 -10.9 16.8 -10.65 12.0 -9.65 2.5 -5.15 0.7 -1.6 -0.5 -1.6 2.75" fill="#edf1f2" fill-rule="evenodd" stroke="none"/>
      <path d="M-7.15 32.35 Q-9.4 10.8 -7.15 6.25 -5.15 1.75 -1.6 2.75 -6.1 4.75 -6.1 9.75 L-7.15 32.35" fill="#9fa2a3" fill-rule="evenodd" stroke="none"/>
      <path d="M-14.2 19.05 L-11.45 19.05 -12.4 26.1 -14.2 19.05" fill="#000000" fill-rule="evenodd" stroke="none"/>
      <path d="M-13.4 20.3 Q-15.4 18.8 -14.9 16.5 -14.2 14.25 -13.15 14.0 L-10.4 18.3 -11.65 21.35 -13.4 20.3" fill="#000000" fill-rule="evenodd" stroke="none"/>
      <path d="M14.95 19.3 L12.2 26.85 12.45 19.05 14.95 19.3" fill="#000000" fill-rule="evenodd" stroke="none"/>
      <path d="M2.15 0.95 L7.9 2.0 Q11.95 4.5 12.95 13.75 13.2 18.55 10.95 34.9 11.45 16.25 10.2 10.55 8.7 3.5 1.4 2.0 1.4 1.2 2.15 0.95" fill="#edf1f2" fill-rule="evenodd" stroke="none"/>
      <path d="M1.4 2.0 Q7.9 1.75 9.95 6.0 11.95 10.55 11.2 23.85 10.65 12.0 9.45 8.0 7.9 4.0 1.4 2.0" fill="#9fa2a3" fill-rule="evenodd" stroke="none"/>
      <path d="M8.7 5.0 Q10.65 6.25 11.7 5.75 12.45 5.45 13.2 4.0 15.2 6.75 12.45 7.25 9.7 8.0 8.95 5.25 L8.7 5.0" fill="#ffffff" fill-rule="evenodd" stroke="none"/>
      <path d="M-7.65 4.0 Q-6.9 4.25 -6.35 5.0 -5.9 5.75 -4.9 5.25 -6.1 7.0 -7.15 6.75 -7.65 6.75 -8.15 6.0 L-9.15 5.25 Q-9.4 5.0 -10.4 5.25 -10.9 5.25 -11.15 4.5 -11.4 3.8 -10.4 2.6 -10.35 3.75 -9.4 4.0 L-7.65 4.0" fill="#ffffff" fill-rule="evenodd" stroke="none"/>
      <path d="M-6.6 3.75 L-7.65 9.5 Q-8.4 13.3 -8.15 22.05 -9.4 10.8 -8.9 8.75 -8.4 6.75 -6.6 3.75" fill="#ffffff" fill-rule="evenodd" stroke="none"/>
      <path d="M12.7 6.5 L12.7 6.75 11.7 4.0 Q12.45 4.75 13.7 8.5 L12.7 6.5" fill="#ffffff" fill-rule="evenodd" stroke="none"/>
      <path d="M11.7 11.45 L10.2 7.5 Q8.7 4.0 7.45 2.75 8.7 2.5 10.95 6.0 L11.7 11.45" fill="#ffffff" fill-rule="evenodd" stroke="none"/>
    </g>
  </defs>
</svg>
